X: 1
T: Peerie Hoose Ahint da Burn
O: trad Shetland
R: reel
B: BSFC X-9A
Z: 2009 John Chambers <jc:trillian.mit.edu>
M: C|
L: 1/8
K: G
D2 \
| "G"GABc dBG2 | "G"gagf "C"e2dc |1,3 "G"BGBd "C"cABG | "Am"ABAG "D"E2 \
                                :|2,4 "G"BGBd "D7"cAFA | "G"G2[BG][B-G-] [B2G2] :|
g2 \
|: "D"fefg afd2 | "G"gagf "C"e2dc |1 "G"BGBd "C"cABG | "D"ABAG "A7"E2eg \
                                 :|2 "G"BGBd "D7"cAFA | "G"G2GG- G2 |]
g2 \
| "D"fefg afd2 | "G"gagf "C"e2dc | "G"BGBd "C"cABG | "Am"ABAG "D7"E2D2 \
| "G"GABc dBG2 | "G"gagf "C"e2dc | "G"BGBd "D7"cAFA | "G"G2[BG][B-G-] [B2G2] |]

